static/img/kroki/df8deefd7d0b9ac38e71e39a05a8bee4.svg

<?xml version="1.0" encoding="us-ascii" standalone="no"?><svg xmlns="http://www.w3.org/2000/svg" xmlns:xlink="http://www.w3.org/1999/xlink" contentStyleType="text/css" height="152px" preserveAspectRatio="none" style="width:645px;height:152px;" version="1.1" viewBox="0 0 645 152" width="645px" zoomAndPan="magnify"><defs/><g><!--class azure_express_route_circuit--><g id="elem_azure_express_route_circuit"><rect codeLine="22" fill="#3D176E" height="39.7891" id="azure_express_route_circuit" rx="2.5" ry="2.5" style="stroke:#000D19;stroke-width:0.5;" width="274" x="164.5" y="7"/><ellipse cx="179.5" cy="26.8945" fill="#ADD1B2" rx="11" ry="11" style="stroke:#181818;stroke-width:1.0;"/><path d="M182.4688,32.5352 Q181.8906,32.832 181.25,32.9727 Q180.6094,33.1289 179.9063,33.1289 Q177.4063,33.1289 176.0781,31.4883 Q174.7656,29.832 174.7656,26.707 Q174.7656,23.582 176.0781,21.9258 Q177.4063,20.2695 179.9063,20.2695 Q180.6094,20.2695 181.25,20.4258 Q181.9063,20.582 182.4688,20.8789 L182.4688,23.5977 Q181.8438,23.0195 181.25,22.7539 Q180.6563,22.4727 180.0313,22.4727 Q178.6875,22.4727 178,23.5508 Q177.3125,24.6133 177.3125,26.707 Q177.3125,28.8008 178,29.8789 Q178.6875,30.9414 180.0313,30.9414 Q180.6563,30.9414 181.25,30.6758 Q181.8438,30.3945 182.4688,29.8164 L182.4688,32.5352 Z " fill="#000000"/><text fill="#D9B8FF" font-family="Helvetica" font-size="17" lengthAdjust="spacing" textLength="232" x="198.5" y="32.7798">azure_express_route_circuit</text></g><!--class azure_express_route_port--><g id="elem_azure_express_route_port"><rect codeLine="24" fill="#3D176E" height="39.7891" id="azure_express_route_port" rx="2.5" ry="2.5" style="stroke:#000D19;stroke-width:0.5;" width="257" x="7" y="106.79"/><ellipse cx="22" cy="126.6845" fill="#ADD1B2" rx="11" ry="11" style="stroke:#181818;stroke-width:1.0;"/><path d="M24.9688,132.3252 Q24.3906,132.622 23.75,132.7627 Q23.1094,132.9189 22.4063,132.9189 Q19.9063,132.9189 18.5781,131.2783 Q17.2656,129.622 17.2656,126.497 Q17.2656,123.372 18.5781,121.7158 Q19.9063,120.0595 22.4063,120.0595 Q23.1094,120.0595 23.75,120.2158 Q24.4063,120.372 24.9688,120.6689 L24.9688,123.3877 Q24.3438,122.8095 23.75,122.5439 Q23.1563,122.2627 22.5313,122.2627 Q21.1875,122.2627 20.5,123.3408 Q19.8125,124.4033 19.8125,126.497 Q19.8125,128.5908 20.5,129.6689 Q21.1875,130.7314 22.5313,130.7314 Q23.1563,130.7314 23.75,130.4658 Q24.3438,130.1845 24.9688,129.6064 L24.9688,132.3252 Z " fill="#000000"/><text fill="#D9B8FF" font-family="Helvetica" font-size="17" lengthAdjust="spacing" textLength="215" x="41" y="132.5698">azure_express_route_port</text></g><!--class azure_express_route_ports_location--><g id="elem_azure_express_route_ports_location"><rect codeLine="26" fill="#3D176E" height="39.7891" id="azure_express_route_ports_location" rx="2.5" ry="2.5" style="stroke:#000D19;stroke-width:0.5;" width="340" x="298.5" y="106.79"/><ellipse cx="313.5" cy="126.6845" fill="#ADD1B2" rx="11" ry="11" style="stroke:#181818;stroke-width:1.0;"/><path d="M316.4688,132.3252 Q315.8906,132.622 315.25,132.7627 Q314.6094,132.9189 313.9063,132.9189 Q311.4063,132.9189 310.0781,131.2783 Q308.7656,129.622 308.7656,126.497 Q308.7656,123.372 310.0781,121.7158 Q311.4063,120.0595 313.9063,120.0595 Q314.6094,120.0595 315.25,120.2158 Q315.9063,120.372 316.4688,120.6689 L316.4688,123.3877 Q315.8438,122.8095 315.25,122.5439 Q314.6563,122.2627 314.0313,122.2627 Q312.6875,122.2627 312,123.3408 Q311.3125,124.4033 311.3125,126.497 Q311.3125,128.5908 312,129.6689 Q312.6875,130.7314 314.0313,130.7314 Q314.6563,130.7314 315.25,130.4658 Q315.8438,130.1845 316.4688,129.6064 L316.4688,132.3252 Z " fill="#000000"/><text fill="#D9B8FF" font-family="Helvetica" font-size="17" lengthAdjust="spacing" textLength="298" x="332.5" y="132.5698">azure_express_route_ports_location</text></g><!--link azure_express_route_circuit to azure_express_route_port--><g id="link_azure_express_route_circuit_azure_express_route_port"><path codeLine="28" d="M268.7,47.22 C239.6,64.36 202.479,86.2234 173.399,103.3634 " fill="none" id="azure_express_route_circuit-to-azure_express_route_port" style="stroke:#1A83AF;stroke-width:2.0;"/><polygon fill="#1A83AF" points="168.23,106.41,178.0145,105.286,172.5375,103.8711,173.9523,98.3941,168.23,106.41" style="stroke:#1A83AF;stroke-width:2.0;"/></g><!--link azure_express_route_circuit to azure_express_route_ports_location--><g id="link_azure_express_route_circuit_azure_express_route_ports_location"><path codeLine="29" d="M334.49,47.22 C363.77,64.36 401.1433,86.2365 430.3933,103.3765 " fill="none" id="azure_express_route_circuit-to-azure_express_route_ports_location" style="stroke:#1A83AF;stroke-width:2.0;"/><polygon fill="#1A83AF" points="435.57,106.41,429.8273,98.4087,431.2561,103.8821,425.7827,105.3109,435.57,106.41" style="stroke:#1A83AF;stroke-width:2.0;"/></g><!--SRC=[fT9DIyD040RWUt_5Gi-5ng99Bq8i5BqKiTv4mdHtjbsQx8RPYRKL_xlzy6ERs5JmklCmyywm2wDGO57oMXHOp91yno-DBO6W42cHMurSxaXqjGOzYEl5iRDy5aoWG76B-GkoaL0NZmiZbnQz5nT1wGRaSawkikhGdWcitvRGSg16ENYVCfEPLOn163MS9LhNPRrfTw2Y-0eRp952-YJzVbz5mpevEwfrxsynDHiKKNYqYMDin6oCsAlMb3iHX6mi-bK_cV4Ub39sBYw3juT39h98H-_J1IYtscaDkG_7U4P2n-iIHusjS9We7V-AxqvXkRkSW4r5cE5hITjlasqPOoODoSgmUEkyjwZIqL-8pt8dWOspUzmsh_VKZT9aa8wVUzSd-_s_mq-Y3m00]--></g></svg>

<svg xmlns="http://www.w3.org/2000/svg" width="645" height="152" viewBox="0 0 645 152"><rect width="274" height="39.789" x="164.5" y="7" fill="#3D176E" rx="2.5" ry="2.5" style="stroke:#000d19;stroke-width:.5"/><circle cx="179.5" cy="26.895" r="11" fill="#ADD1B2" style="stroke:#181818;stroke-width:1"/><path d="M182.469 32.535q-.578.297-1.219.438-.64.156-1.344.156-2.5 0-3.828-1.64-1.312-1.657-1.312-4.782t1.312-4.781q1.328-1.656 3.828-1.656.703 0 1.344.156.656.156 1.219.453v2.719q-.625-.578-1.219-.844-.594-.281-1.219-.281-1.344 0-2.031 1.078-.687 1.062-.687 3.156t.687 3.172q.688 1.062 2.031 1.062.625 0 1.219-.265.594-.281 1.219-.86z"/><text x="198.5" y="32.78" fill="#D9B8FF" font-family="Helvetica" font-size="17" textLength="232">azure_express_route_circuit</text><rect width="257" height="39.789" x="7" y="106.79" fill="#3D176E" rx="2.5" ry="2.5" style="stroke:#000d19;stroke-width:.5"/><circle cx="22" cy="126.684" r="11" fill="#ADD1B2" style="stroke:#181818;stroke-width:1"/><path d="M24.969 132.325q-.578.297-1.219.438-.64.156-1.344.156-2.5 0-3.828-1.64-1.312-1.657-1.312-4.782t1.312-4.781q1.328-1.656 3.828-1.656.703 0 1.344.156.656.156 1.219.453v2.719q-.625-.579-1.219-.844-.594-.281-1.219-.281-1.343 0-2.031 1.078-.687 1.062-.687 3.156t.687 3.172q.688 1.062 2.031 1.062.625 0 1.219-.265.594-.281 1.219-.86z"/><text x="41" y="132.57" fill="#D9B8FF" font-family="Helvetica" font-size="17" textLength="215">azure_express_route_port</text><rect width="340" height="39.789" x="298.5" y="106.79" fill="#3D176E" rx="2.5" ry="2.5" style="stroke:#000d19;stroke-width:.5"/><circle cx="313.5" cy="126.684" r="11" fill="#ADD1B2" style="stroke:#181818;stroke-width:1"/><path d="M316.469 132.325q-.578.297-1.219.438-.64.156-1.344.156-2.5 0-3.828-1.64-1.312-1.657-1.312-4.782t1.312-4.781q1.328-1.656 3.828-1.656.703 0 1.344.156.656.156 1.219.453v2.719q-.625-.579-1.219-.844-.594-.281-1.219-.281-1.344 0-2.031 1.078-.687 1.062-.687 3.156t.687 3.172q.688 1.062 2.031 1.062.625 0 1.219-.265.594-.281 1.219-.86z"/><text x="332.5" y="132.57" fill="#D9B8FF" font-family="Helvetica" font-size="17" textLength="298">azure_express_route_ports_location</text><path fill="none" d="M268.7 47.22c-29.1 17.14-66.221 39.003-95.301 56.143" style="stroke:#1a83af;stroke-width:2"/><path fill="#1A83AF" d="m168.23 106.41 9.785-1.124-5.477-1.415 1.414-5.477z" style="stroke:#1a83af;stroke-width:2"/><path fill="none" d="M334.49 47.22c29.28 17.14 66.653 39.017 95.903 56.156" style="stroke:#1a83af;stroke-width:2"/><path fill="#1A83AF" d="m435.57 106.41-5.743-8.001 1.43 5.473-5.474 1.429z" style="stroke:#1a83af;stroke-width:2"/></svg>
